data/styles/clear/style-clear/symbols/tomb-m.svg

<svg height="24" viewBox="0 0 24 24" width="24"><g fill="none" fill-rule="evenodd"><circle cx="12" cy="12" fill="#fff" opacity=".6" r="12"/><circle cx="12" cy="12" fill="#7f5933" r="11"/><path d="m6 19v-8.0724c0-3.26853333 2.62964387-5.9276 5.8610876-5.9276h.2778248c3.2314437 0 5.8610876 2.65906667 5.8610876 5.9276v8.0724zm10.1530651-.9333333v-7.1390667c0-2.23813333-1.8007845-4.06093333-4.0150757-4.06093333h-.2778248c-2.2133682 0-4.01507576 1.82186666-4.01507576 4.06093333v7.1390667zm-1.8460118-.9333334v-6.2057333c0-1.2096-.9728482-2.19426667-2.1690639-2.19426667h-.2778248c-1.1962157 0-2.16906392.98466667-2.16906392 2.19426667v6.2057333z" fill="#fff"/></g></svg>

<svg width="24" height="24" viewBox="0 0 24 24">
  <g fill="none" fill-rule="evenodd">
    <circle cx="12" cy="12" r="12" fill="#FFF" opacity=".6"/>
    <circle cx="12" cy="12" r="11" fill="#7F5933"/>
    <path fill="#FFF" d="M6,19 L6,10.9276 C6,7.65906667 8.62964387,5 11.8610876,5 L12.1389124,5 C15.3703561,5 18,7.65906667 18,10.9276 L18,19 L6,19 L6,19 Z M16.1530651,18.0666667 L16.1530651,10.9276 C16.1530651,8.68946667 14.3522806,6.86666667 12.1379894,6.86666667 L11.8601646,6.86666667 C9.6467964,6.86666667 7.84508884,8.68853333 7.84508884,10.9276 L7.84508884,18.0666667 L16.1530651,18.0666667 L16.1530651,18.0666667 Z M14.3070533,17.1333333 L14.3070533,10.9276 C14.3070533,9.718 13.3342051,8.73333333 12.1379894,8.73333333 L11.8601646,8.73333333 C10.6639489,8.73333333 9.69110068,9.718 9.69110068,10.9276 L9.69110068,17.1333333 L14.3070533,17.1333333 L14.3070533,17.1333333 Z"/>
  </g>
</svg>
